X:1
T:Title
%%score { ( 1 4 ) | ( 2 3 ) }
L:1/8
M:6/8
K:F
V:1 treble nm="Grand Piano"
V:4 treble 
V:2 bass 
V:3 bass 
V:1
 z3 z2[Q:1/4=92] F | AAA AGA | c3- c2 A | [EG][Ec][Ec] [Ec]2 [EB] | A3- A2 F | AAA c2 A | %6
[M:7/8] [DFB][DFB][DFB] [Fd]3 [DFB]/[DFB]/ |[M:13/16] [CFA][B,CG][A,CF][B,EG][EA]3/2[B,EG] | %8
[M:5/8] [A,F]-[A,F]- [A,F]3 |[M:1/8] [Fc] |[M:3/4] [Fd]4 z2 | [Fc]6 | e4 z2 | [Af]6 | %14
 [Fd][Fd] [Fd][Fd] [Fe][Ff] | [Fc]6 | [Fc][CFA] [A,F] [CFA]2 [B,EG] | %17
[M:5/8] [F,A,F]-[F,A,F]- [F,A,F]3 |] %18
V:2
 z3 z2 [F,A,] | [F,CF][F,CF][F,CF] [F,CF][F,B,F][F,CF] | [F,A,F]3- [F,A,F]2 [F,CF] | %3
 [C,C][C,G,][C,G,] [C,G,]2 [C,C] | [F,CF]3- [F,CF]2 [F,A,] | [F,CF][F,CF][F,CF] [F,A,F]2 [F,CF] | %6
[M:7/8] B,,B,,B,, [B,,B,]3 B,,/B,,/ |[M:13/16] C,C,C, z C3/2C, |[M:5/8] F,-F,- F,3 | %9
[M:1/8] [F,A,] |[M:3/4] [B,,B,]B,, B,,B,, B,,[B,,B,] | [F,A,]F, F, .F,3 | %12
 [C,C]C, C,[C,C] [C,C][C,C] | [F,C]2 F, .F,3 | [B,,B,][B,,B,] [B,,B,][B,,B,] [C,B,][D,B,] | %15
 [F,A,]F, F, .F,3 | [C,A,]C, C, C,2 C, |[M:5/8] F,,-F,,- F,,3 |] %18
V:3
 x6 | x6 | x6 | x6 | x6 | x6 |[M:7/8] x7 |[M:13/16] z/ z/ z/ z/ z C,/-C,-<C, z |[M:5/8] x5 | %9
[M:1/8] x |[M:3/4] x6 | x6 | x6 | x6 | x6 | x6 | x6 |[M:5/8] x5 |] %18
V:4
 x6 | x6 | x6 | x6 | x6 | x6 |[M:7/8] x7 |[M:13/16] x13/2 |[M:5/8] x5 |[M:1/8] x | %10
[M:3/4] z B, B,B, [DFB][Fd] | z A, A, .A,3 | G-[CG-] [CG]B [Bd][Be] | z2 C .C3 | x6 | %15
 z A, A, .A,3 | x6 |[M:5/8] x5 |] %18

